web/static/images/badges/waste.svg

<?xml version="1.0" encoding="UTF-8" standalone="no"?>
<!-- Created with Inkscape (http://www.inkscape.org/) -->

<svg
   xmlns:dc="http://purl.org/dc/elements/1.1/"
   xmlns:cc="http://creativecommons.org/ns#"
   xmlns:rdf="http://www.w3.org/1999/02/22-rdf-syntax-ns#"
   xmlns:svg="http://www.w3.org/2000/svg"
   xmlns="http://www.w3.org/2000/svg"
   xmlns:sodipodi="http://sodipodi.sourceforge.net/DTD/sodipodi-0.dtd"
   xmlns:inkscape="http://www.inkscape.org/namespaces/inkscape"
   width="207.3026mm"
   height="207.9749mm"
   viewBox="0 0 207.3026 207.9749"
   version="1.1"
   id="svg5"
   inkscape:version="0.92.5 (2060ec1f9f, 2020-04-08)"
   sodipodi:docname="waste.svg">
  <metadata
     id="metadata40">
    <rdf:RDF>
      <cc:Work
         rdf:about="">
        <dc:format>image/svg+xml</dc:format>
        <dc:type
           rdf:resource="http://purl.org/dc/dcmitype/StillImage" />
        <dc:title></dc:title>
      </cc:Work>
    </rdf:RDF>
  </metadata>
  <sodipodi:namedview
     id="namedview7"
     pagecolor="#505050"
     bordercolor="#eeeeee"
     borderopacity="1"
     inkscape:pageshadow="0"
     inkscape:pageopacity="0"
     inkscape:pagecheckerboard="0"
     inkscape:document-units="mm"
     showgrid="false"
     inkscape:zoom="0.50670507"
     inkscape:cx="-166.14518"
     inkscape:cy="-42.203175"
     inkscape:window-width="1920"
     inkscape:window-height="1053"
     inkscape:window-x="0"
     inkscape:window-y="-10"
     inkscape:window-maximized="1"
     inkscape:current-layer="g15"
     fit-margin-top="0"
     fit-margin-left="0"
     fit-margin-right="0"
     fit-margin-bottom="0" />
  <defs
     id="defs2">
    <style
       type="text/css"
       id="style9">

    .fil0 {fill:black}

  </style>
  </defs>
  <g
     inkscape:label="Layer 1"
     inkscape:groupmode="layer"
     id="layer1"
     transform="translate(-2.078943,-4.5645794)">
    <g
       style="clip-rule:evenodd;fill-rule:evenodd;image-rendering:optimizeQuality;shape-rendering:geometricPrecision;text-rendering:geometricPrecision"
       id="g30"
       transform="matrix(0.26458333,0,0,0.26458333,-2.2986673,18.186033)">
      <g
         id="g15"
         style="fill:#d81b60;fill-opacity:1"
         transform="matrix(1.6022599,0,0,1.6022599,-270.25732,-187.67419)">
        <path
           id="path13"
           transform="matrix(0.62411848,0,0,0.62411848,174.09485,74.232387)"
           style="fill:#5e35b1;fill-opacity:1;stroke-width:1.60225999"
           d="m 398.80859,17.251953 -46.46484,56.078125 -68.89648,-38.453125 -30.44336,73.703127 -83.31836,-17.625002 -4.80664,73.705082 -78.509769,9.61328 17.624999,76.9082 -76.908202,36.85156 40.054687,62.48828 -59.2832031,52.875 60.8867191,51.27149 -41.658203,75.30664 68.896484,27.23828 -16.023438,76.9082 78.511716,6.41016 11.21485,84.91992 70.5,-19.22851 32.04492,72.10156 68.89844,-41.6582 57.67968,64.08984 48.06836,-57.67969 67.29493,40.05664 32.04492,-73.70508 83.31836,16.02344 4.80664,-73.70508 78.50976,-8.00976 -19.22656,-78.51172 78.51172,-35.25 -40.05664,-62.48828 59.2832,-52.875 -60.88672,-52.87305 41.66016,-73.70508 -68.89844,-27.23828 16.02344,-78.50976 L 639.14844,175.875 629.53516,90.955078 557.43359,110.18359 525.38867,38.082031 458.09375,79.740234 Z M 192.95312,296.54688 h 83.9668 v 230.90624 h -83.9668 z m 125.95313,0 h 39.88477 l 153.23632,56.67773 c 10.49556,4.19696 16.79297,12.59426 16.79297,23.08984 0,6.2994 -2.10185,12.59445 -6.29883,16.79297 -4.19697,4.19694 -10.49548,8.39649 -18.89257,8.39649 h -58.77735 l -35.68359,-14.69336 -6.30078,18.89257 41.98437,16.79297 h 146.93946 0.004 c 12.59482,0 23.09088,4.19782 29.38867,12.59571 8.39634,8.39629 12.59375,18.89112 12.59375,29.38672 L 465.8457,527.45312 318.90625,485.4707 Z m 247.3418,439.1289 c -0.0289,0.10248 -0.0648,0.20304 -0.0899,0.30664 -0.23505,0.97261 -0.43003,1.95623 -0.61914,2.93946 0.16787,0.0621 0.3204,0.14758 0.4668,0.24218 0.8024,-1.33404 1.35233,-2.26292 1.91016,-3.16992 z m -325.16993,12.02149 c 2.1e-4,0.0189 0.002,0.0378 0.002,0.0566 0.0503,0.15032 0.0972,0.29719 0.14453,0.4375 0.0229,-0.01 -0.0438,-0.20705 -0.14649,-0.49414 z m 207.14649,38.06835 c -8.6e-4,0.0208 -0.003,0.0417 -0.004,0.0625 0.0191,0.0269 0.0409,0.0583 0.0605,0.0625 0.0592,0.0127 0.12004,0.0154 0.17969,0.0254 -0.0796,-0.0489 -0.15626,-0.10229 -0.23633,-0.1504 z m 11.36719,1.4043 c -0.34608,0.0332 -0.72564,0.0796 -1.30469,0.17383 -0.0981,0.0114 -0.075,0.01 -0.16211,0.0195 0.5512,0.0428 1.04731,0.0821 1.77148,0.14258 -0.1,-0.11352 -0.20597,-0.22127 -0.30468,-0.33594 z m 50.0957,15.72461 c -0.0807,0.12416 -0.18283,0.27537 -0.26758,0.4043 h 0.94531 z"
           inkscape:connector-curvature="0" />
      </g>
    </g>
  </g>
</svg>

<?xml version="1.0" encoding="UTF-8" standalone="no"?>
<!-- Created with Inkscape (http://www.inkscape.org/) -->

<svg
   width="210mm"
   height="297mm"
   viewBox="0 0 210 297"
   version="1.1"
   id="svg5"
   inkscape:version="1.1 (c4e8f9e, 2021-05-24)"
   sodipodi:docname="waste-badge.svg"
   xmlns:inkscape="http://www.inkscape.org/namespaces/inkscape"
   xmlns:sodipodi="http://sodipodi.sourceforge.net/DTD/sodipodi-0.dtd"
   xmlns="http://www.w3.org/2000/svg"
   xmlns:svg="http://www.w3.org/2000/svg">
  <sodipodi:namedview
     id="namedview7"
     pagecolor="#505050"
     bordercolor="#eeeeee"
     borderopacity="1"
     inkscape:pageshadow="0"
     inkscape:pageopacity="0"
     inkscape:pagecheckerboard="0"
     inkscape:document-units="mm"
     showgrid="false"
     inkscape:zoom="0.50670507"
     inkscape:cx="298.99049"
     inkscape:cy="359.1833"
     inkscape:window-width="1712"
     inkscape:window-height="1110"
     inkscape:window-x="632"
     inkscape:window-y="216"
     inkscape:window-maximized="0"
     inkscape:current-layer="layer1" />
  <defs
     id="defs2">
    <style
       type="text/css"
       id="style9">

    .fil0 {fill:black}

  </style>
  </defs>
  <g
     inkscape:label="Layer 1"
     inkscape:groupmode="layer"
     id="layer1">
    <g
       style="clip-rule:evenodd;fill-rule:evenodd;image-rendering:optimizeQuality;shape-rendering:geometricPrecision;text-rendering:geometricPrecision"
       id="g30"
       transform="matrix(0.26458333,0,0,0.26458333,-2.2986673,18.186033)">
      <g
         id="g15"
         style="fill:#d81b60;fill-opacity:1"
         transform="matrix(1.6022599,0,0,1.6022599,-270.25732,-187.67419)">
        <path
           id="path13"
           style="fill:#5e35b1;fill-opacity:1;stroke-width:1.60226"
           class="fil0"
           d="M 398.80859 17.251953 L 352.34375 73.330078 L 283.44727 34.876953 L 253.00391 108.58008 L 169.68555 90.955078 L 164.87891 164.66016 L 86.369141 174.27344 L 103.99414 251.18164 L 27.085938 288.0332 L 67.140625 350.52148 L 7.8574219 403.39648 L 68.744141 454.66797 L 27.085938 529.97461 L 95.982422 557.21289 L 79.958984 634.12109 L 158.4707 640.53125 L 169.68555 725.45117 L 240.18555 706.22266 L 272.23047 778.32422 L 341.12891 736.66602 L 398.80859 800.75586 L 446.87695 743.07617 L 514.17188 783.13281 L 546.2168 709.42773 L 629.53516 725.45117 L 634.3418 651.74609 L 712.85156 643.73633 L 693.625 565.22461 L 772.13672 529.97461 L 732.08008 467.48633 L 791.36328 414.61133 L 730.47656 361.73828 L 772.13672 288.0332 L 703.23828 260.79492 L 719.26172 182.28516 L 639.14844 175.875 L 629.53516 90.955078 L 557.43359 110.18359 L 525.38867 38.082031 L 458.09375 79.740234 L 398.80859 17.251953 z M 192.95312 296.54688 L 276.91992 296.54688 L 276.91992 527.45312 L 192.95312 527.45312 L 192.95312 296.54688 z M 318.90625 296.54688 L 358.79102 296.54688 L 512.02734 353.22461 C 522.5229 357.42157 528.82031 365.81887 528.82031 376.31445 C 528.82031 382.61385 526.71846 388.9089 522.52148 393.10742 C 518.32451 397.30436 512.026 401.50391 503.62891 401.50391 L 444.85156 401.50391 L 409.16797 386.81055 L 402.86719 405.70312 L 444.85156 422.49609 L 591.79102 422.49609 L 591.79492 422.49609 C 604.38974 422.49609 614.8858 426.69391 621.18359 435.0918 C 629.57993 443.48809 633.77734 453.98292 633.77734 464.47852 L 465.8457 527.45312 L 318.90625 485.4707 L 318.90625 296.54688 z M 240.18555 730.25781 L 222.56055 735.06445 L 200.12891 1101.9824 L 405.21875 925.73242 L 621.52344 1101.9824 L 579.86523 738.26953 L 546.2168 731.85938 L 514.17188 805.56445 L 446.87695 765.50781 L 398.80859 823.1875 L 341.12891 760.70117 L 272.23047 802.35938 L 240.18555 730.25781 z "
           transform="matrix(0.62411848,0,0,0.62411848,174.09485,74.232387)" />
      </g>
    </g>
  </g>
</svg>
